contributed-vectors/irctc_rail_connect.svg

<svg xmlns="http://www.w3.org/2000/svg" width="192" height="192" fill="none"><g clip-path="url(#a)"><g clip-path="url(#b)"><path fill="#FF837D" d="M176.4 60.18c-7.01-4.35-13.25-7.34-18.1-9.39-11.48-4.86-20.67-6.8-26.75-7.57v-.01c-6.69-1.46-12.36-2.17-16.55-2.52-7.03-.61-19.46-1.58-30.07 2.14-4.52 1.6-8.51 3.91-8.51 3.91-3.22 1.86-5.45 3.64-6.74 4.69-.63.51-3.87 3.14-7.09 6.74-5.81 6.49-5.07 8.77-11.35 17.46-1.22 1.68-4.51 6.11-9.48 11.14-2.54 2.57-4.48 4.54-7.45 6.81-5.98 4.58-9.01 4.94-16.07 10.44-.17.13-.32.25-.47.36-2.28 1.77-3.47 2.74-4.16 3.84-2.1 2.95-2.82 6.38-2.85 9.65C8.95 110.87 8 103.56 8 96 8 47.39 47.39 8 96 8c35.84 0 66.68 21.43 80.4 52.18Z"/><path fill="#fff" d="M184 96c0 4.61-.35 9.13-1.03 13.54a87.375 87.375 0 0 1-6.28 21.63c-2.01 1.08-4.8 2.6-8.69 4.72-14.81 8.11-19.57 10.85-27.18 12.55-1.24.27-6.64 1.44-12.96 1.35-12.66-.18-32.28-5.48-44.5-22.78C70.59 108.9 74.01 89.14 74.99 84c.81-4.26 5.13-26.97 24.12-36.83 6.05-3.13 11.91-4.1 17.49-4.38 2.61-.14 5.16-.12 7.63-.1 3.49.03 15.89.4 34.07 8.1 4.84 2.06 11.09 5.05 18.1 9.39C181.28 71.12 184 83.24 184 96Z"/><path fill="#8C72BD" d="M176.69 131.17C163.11 162.26 132.09 184 96 184c-13.99 0-27.22-3.27-38.96-9.07-1.6-7.13-2.6-14.39-3.48-20.81-.74-5.29-4.06-32 8.08-62.73 5.72-14.46 13.54-34.25 33.5-44.14 1.91-.95 7.42-3.67 13.31-4.47 2.59-.35 5.32-.33 8.15.02-5.58.27-11.44 1.24-17.49 4.38C80.12 57.03 75.8 79.74 74.99 84c-.98 5.14-4.4 24.9 8.37 43.01 12.21 17.3 31.83 22.6 44.5 22.78 6.31.09 11.72-1.08 12.96-1.35 7.61-1.7 12.38-4.44 27.18-12.55 3.89-2.13 6.67-3.64 8.69-4.72Z"/><path fill="#96DFD3" d="M131.55 43.21v.01c-3.54-.46-6.04-.52-7.31-.53-2.47-.02-5.03-.04-7.63.1-2.83-.35-5.57-.37-8.15-.02-5.88.79-11.4 3.52-13.31 4.47-19.95 9.89-27.78 29.68-33.5 44.14-12.14 30.73-8.82 57.44-8.08 62.73.88 6.42 1.88 13.68 3.48 20.81a88.39 88.39 0 0 1-36.7-33.97 87.218 87.218 0 0 1-9.6-23.09c.03-3.27.75-6.7 2.85-9.65.74-1.04 1.88-2.05 4.16-3.84.15-.11.31-.23.47-.36 7.06-5.5 10.09-5.86 16.07-10.44 2.97-2.27 4.91-4.23 7.45-6.81 4.97-5.04 8.26-9.46 9.48-11.14 6.28-8.69 5.54-10.97 11.35-17.46 3.22-3.61 6.47-6.24 7.09-6.74 1.3-1.04 3.52-2.83 6.74-4.69 0 0 3.99-2.31 8.51-3.91 10.62-3.73 23.05-2.75 30.07-2.14 4.2.36 9.87 1.07 16.56 2.53Z"/><path fill="#54688C" d="M131.32 58.5h2.02c2.96.37 5.77 1.71 7.94 3.76 3.74 3.46 5.36 8.54 6.18 13.43.03.34.04.68.08 1.02-2.84-.04-5.68.04-8.52-.04-.04 0-.13-.01-.17-.01-.57-2.42-1.5-4.8-2.97-6.81-2.11-2.92-5.69-4.6-9.25-4.68-2.54-.05-4.97 1.01-6.93 2.58-2.44 1.91-4.39 4.36-6.22 6.84 1.72-3.69 3.99-7.15 6.77-10.13 2.9-3.11 6.76-5.52 11.07-5.96ZM119.8 86.53c3.12-.01 6.25-.02 9.37.01 1.72.75 3.35 1.87 4.51 3.37 1.22 1.57 1.48 3.76.77 5.61-.41.93-1.28 1.57-2.13 2.08-1.6.91-3.37 1.45-5.12 2.01-.04.35-.08.69-.13 1.04 2.85 2.88 5.84 5.61 8.7 8.48-.5.1-1 .06-1.51.06-4.83 0-9.65.01-14.48-.01-.02-7.56-.02-15.11.02-22.65Z"/><path fill="#54688C" d="M133.48 86.56c3.03-.09 6.06-.01 9.09-.04.05 7.55.01 15.1.02 22.64-1.15-.02-2.3.06-3.44-.04-2.79-2.76-5.51-5.59-8.29-8.37 1.84-.58 3.76-1.27 5.05-2.79 2.48-2.71 2.16-7.3-.43-9.82-.59-.63-1.34-1.05-2-1.58ZM104.38 93.6l.06-.05c1.43 2.61 2.9 5.19 4.28 7.83-.01 0-.04.01-.06.01-.37.06-.62.35-.87.6-1.55 1.65-3.02 3.43-3.89 5.54-.98 2.3-1.1 4.92-.47 7.33.58 2.6 2.21 4.94 4.48 6.35 3.29 2.09 7.23 2.66 11 3.29-5.22.23-10.61-.2-15.47-2.26-3.47-1.47-6.62-4.06-8.1-7.6-1.38-3.1-1.27-6.71-.15-9.88 1.65-4.66 5.32-8.24 9.19-11.16ZM159.18 94.24c3.23 4.71 6.07 9.99 6.56 15.79v2.87c-.18 2.87-1.34 5.68-3.26 7.82-2.19 2.37-5.26 3.86-8.43 4.35-4.47.67-8.96-.42-13.13-1.95.04-.09.12-.26.16-.34 1.24-2.47 2.63-4.88 3.94-7.31l.1-.05c2.56.7 5.28 1.02 7.91.57 3.23-.59 6.08-2.68 7.81-5.44 1.1-1.75 1.57-3.85 1.45-5.9-.16-3.69-1.77-7.06-3.11-10.41ZM147.46 75.7c.07.3.15.6.23.9 2.25.17 4.5-.09 6.74-.02.07 5.91-.38 11.83-1.54 17.63a70.167 70.167 0 0 1-7.81 21.1c.62-2.27 1.46-4.47 2.01-6.76 1.83-7.08 2.61-14.47 1.99-21.77-.22-3.39-.82-6.74-1.55-10.06-.02-.34-.04-.68-.07-1.02Z"/><path fill="#54688C" d="M124.43 78.21c4.74-.99 9.57-1.64 14.42-1.55.04 0 .13.01.17.01-3.47.73-6.94 1.48-10.3 2.63-4.54 1.48-8.94 3.45-13.03 5.9-4.08 2.31-7.71 5.28-11.24 8.33l-.06.05c-1.09-2.02-2.42-3.9-3.43-5.96 7.29-4.26 15.19-7.57 23.47-9.41ZM108.67 101.4c.01 0 .04-.01.06-.01l.04.07-.1-.06Z"/><path fill="#54688C" d="M108.76 101.45c.03.03.09.1.12.14-.03-.04-.09-.1-.12-.14ZM108.88 101.59c2.24 2.27 4.27 4.76 6.7 6.84 6.99 6.45 15.42 11.28 24.43 14.28.34.11.7.19 1.04.06-.04.09-.12.26-.16.34-1.04 1.89-2.13 3.74-3.19 5.62-.14.36-.51.09-.73-.02-10.13-5.87-19.27-13.7-25.85-23.45-.76-1.22-1.63-2.37-2.24-3.67ZM145 115.46c.02-.04.07-.11.09-.15v.11l-.09.04ZM138.57 75.43c-1.7-6.13-5.72-9.77-11.33-10.28-3.6-.33-7.17 1.57-10.97 5.84-.78.87-1.45 1.55-1.5 1.5-.05-.05.29-.72.74-1.49 3.02-5.13 7.13-9.24 11.04-11.04 3.98-1.84 7.22-1.84 11.04-.01 4.84 2.33 7.93 6.89 9.35 13.81.23 1.1.45 2.2.5 2.44l.09.43h-8.62l-.34-1.2ZM111.94 124.25c-.85-.09-2.4-.34-3.45-.57-7.22-1.54-11.7-4.98-13.55-10.41-.29-.84-.36-1.62-.36-3.76.01-2.51.05-2.82.59-4.36 1.04-2.93 2.47-5.15 4.95-7.67 1.67-1.7 4.17-3.78 4.34-3.61.07.07 1 1.74 2.08 3.71l1.96 3.59-.95.99c-3.79 3.94-5.17 7.8-4.3 12.08.46 2.27 1.24 3.82 2.73 5.4 2 2.12 4.65 3.33 9.57 4.35l2.17.45-2.12-.01c-1.16-.02-2.81-.09-3.66-.18ZM148.87 125.03c-1.85-.22-3.67-.65-6.01-1.4l-1.87-.6.78-1.46c2.43-4.51 3.29-5.99 3.49-5.99.12 0 .86.13 1.63.29 1.86.39 5.4.39 6.87 0 3.61-.96 6.87-3.94 8.06-7.39.36-1.05.44-1.68.44-3.41-.01-2.35-.37-4.03-1.56-7.19-.37-1-.64-1.85-.6-1.89.04-.04.62.83 1.28 1.94 1.8 3.03 3.06 6.1 3.91 9.55.4 1.64.34 6.55-.1 8-.65 2.14-1.83 4.13-3.35 5.64-1.15 1.14-1.77 1.57-3.38 2.34-1.08.52-2.54 1.08-3.24 1.25-1.64.4-4.52.54-6.35.32Z"/><path fill="#54688C" d="M119.94 97.85V86.66h4.64c5.21 0 5.18-.01 7.29 1.6 2.94 2.24 3.78 5.9 1.85 8.04-.79.87-2.81 1.97-4.96 2.69-1.48.5-1.58.57-1.64 1.11-.05.53.32.96 4.15 4.75l4.2 4.17h-15.52V97.85h-.01Z"/><path fill="#54688C" d="M136.33 106.19c-1.54-1.56-3.34-3.41-4-4.11l-1.21-1.26 1.59-.65c1.31-.53 1.82-.88 2.86-1.92 1.1-1.1 1.33-1.46 1.71-2.68.37-1.17.43-1.64.32-2.79-.21-2.21-1.26-4.16-2.98-5.47l-.86-.65h8.74v22.38h-3.38l-2.79-2.85ZM138.46 75.04c-1.87-5.66-5.06-8.76-9.99-9.72-1.39-.27-1.97-.29-3.09-.13-2.92.42-5.01 1.66-8.17 4.82-1.19 1.19-2.17 2.1-2.17 2.02 0-.08.36-.75.8-1.48 3.55-5.92 8.76-10.37 13.48-11.54 1.59-.39 4-.4 5.49-.02 2.52.64 5.8 2.62 7.33 4.4 1.6 1.86 2.95 4.34 3.82 6.98.44 1.33 1.48 5.63 1.48 6.1 0 .09-1.9.16-4.23.16h-4.23l-.52-1.59ZM146.96 124.65c-1.52-.31-5.69-1.47-5.84-1.63-.07-.07 2.82-5.38 3.59-6.6.38-.61.6-.79.9-.72 2.43.54 6.35.63 8.11.18 2.08-.53 3.52-1.39 5.3-3.17 2.39-2.39 3.27-4.39 3.27-7.43 0-2.15-.28-3.64-1.16-6.24-.42-1.23-.76-2.33-.76-2.44 0-.11.35.37.77 1.06 2.07 3.35 3.91 8.17 4.28 11.2.3 2.41-.03 6.07-.68 7.69-1.76 4.35-5.25 7.18-10.13 8.22-1.8.37-5.51.32-7.65-.12Z"/><path fill="#54688C" d="m135.18 104.96-4.03-4.08 1.64-.75c1.88-.87 3.4-2.22 4.2-3.73.46-.87.51-1.17.51-2.99 0-1.89-.04-2.11-.62-3.31-.43-.87-1-1.62-1.79-2.36l-1.17-1.08h8.5v22.38h-3.2l-4.04-4.08Z"/><path fill="#54688C" d="M120.06 97.82v-11.2l4.58.08c5.12.09 5.32.14 7.06 1.52 1.82 1.44 2.74 2.93 2.96 4.78.3 2.53-1.23 4.17-5.34 5.72-2.08.79-2.48 1.14-2.11 1.87.12.24 2.01 2.23 4.2 4.44l3.98 4h-15.32V97.82h-.01ZM113.21 124.26c-9.29-.66-15.41-4.18-17.95-10.31-.54-1.3-.56-1.46-.55-4.44.01-2.89.04-3.17.54-4.44.72-1.85 1.88-3.95 2.91-5.29 1.54-2 6.07-6.13 6.35-5.79.1.12 3.3 5.95 3.66 6.66.3.59.29.61-.29 1.16-1.1 1.03-2.87 3.4-3.55 4.73-.94 1.87-1.26 3.24-1.25 5.37.02 5.21 2.78 9.01 7.84 10.82.63.22 2.27.69 3.64 1.04 2.76.71 2.59.77-1.35.49ZM147.34 124.75c-1.96-.4-5.97-1.52-6.23-1.75-.12-.1 3.64-6.78 3.97-7.08.29-.26.52-.26 1.88-.04 1.85.31 4.86.35 6.29.09 3.8-.7 7.76-4.42 8.75-8.21.61-2.35.31-5.2-.96-8.95-.37-1.1-.64-2.04-.59-2.09.33-.33 2.94 4.97 3.96 8.01.99 2.97 1.24 4.62 1.09 7.38-.14 2.64-.48 4.05-1.38 5.77-1.69 3.21-4.21 5.23-8.19 6.57-1.64.56-6.5.73-8.59.3Z"/><path fill="#54688C" d="M149.14 124.96c-2.18-.15-8-1.63-8-2.03 0-.17 1.47-2.92 2.86-5.34l1.09-1.9.87.11c2.3.28 6.32.35 7.39.13 1.85-.38 3.98-1.58 5.49-3.08 3.62-3.59 4.28-7.21 2.42-13.28-.96-3.13-.96-3.13-.47-2.54.74.89 2.9 5.48 3.67 7.81 1.02 3.07 1.29 5.3.99 8.32-.53 5.43-3.57 9.19-8.98 11.12-1.78.62-4.5.88-7.33.68ZM138.64 75.67c-.38-1.5-1.34-3.64-2.31-5.12-2.19-3.36-5.82-5.34-9.74-5.34-1.9 0-3.11.31-4.87 1.23-1.46.77-4.26 3.1-5.71 4.76-.5.57-.91.97-.91.88 0-.41 1.32-2.56 2.69-4.38 2.83-3.76 6.45-6.77 9.72-8.08 1.77-.71 3.03-.96 4.74-.96 1.77 0 3.24.41 5.6 1.57 1.74.85 2.25 1.23 3.67 2.65 3.06 3.08 4.28 5.82 5.89 13.28l.09.43h-8.64l-.22-.92Z"/></g></g><defs><clipPath id="a"><path fill="#fff" d="M0 0h192v192H0z"/></clipPath><clipPath id="b"><path fill="#fff" d="M8 8h176v176H8z"/></clipPath></defs></svg>

<svg width="192" height="192" viewBox="0 0 192 192" fill="none" xmlns="http://www.w3.org/2000/svg">
<g clip-path="url(#clip0)">
<g clip-path="url(#clip1)">
<path d="M176.4 60.18C169.39 55.83 163.15 52.84 158.3 50.79C146.82 45.93 137.63 43.99 131.55 43.22V43.21C124.86 41.75 119.19 41.04 115 40.69C107.97 40.08 95.54 39.11 84.93 42.83C80.41 44.43 76.42 46.74 76.42 46.74C73.2 48.6 70.97 50.38 69.68 51.43C69.05 51.94 65.81 54.57 62.59 58.17C56.78 64.66 57.52 66.94 51.24 75.63C50.02 77.31 46.73 81.74 41.76 86.77C39.22 89.34 37.28 91.31 34.31 93.58C28.33 98.16 25.3 98.52 18.24 104.02C18.07 104.15 17.92 104.27 17.77 104.38C15.49 106.15 14.3 107.12 13.61 108.22C11.51 111.17 10.79 114.6 10.76 117.87C8.95 110.87 8 103.56 8 96C8 47.39 47.39 8 96 8C131.84 8 162.68 29.43 176.4 60.18Z" fill="#FF837D"/>
<path d="M184 96C184 100.61 183.65 105.13 182.97 109.54C181.8 117.11 179.66 124.37 176.69 131.17C174.68 132.25 171.89 133.77 168 135.89C153.19 144 148.43 146.74 140.82 148.44C139.58 148.71 134.18 149.88 127.86 149.79C115.2 149.61 95.5802 144.31 83.3602 127.01C70.5902 108.9 74.0102 89.14 74.9902 84C75.8002 79.74 80.1202 57.03 99.1102 47.17C105.16 44.04 111.02 43.07 116.6 42.79C119.21 42.65 121.76 42.67 124.23 42.69C127.72 42.72 140.12 43.09 158.3 50.79C163.14 52.85 169.39 55.84 176.4 60.18C181.28 71.12 184 83.24 184 96Z" fill="white"/>
<path d="M176.69 131.17C163.11 162.26 132.09 184 95.9999 184C82.0099 184 68.7799 180.73 57.0399 174.93C55.4399 167.8 54.4399 160.54 53.5599 154.12C52.8199 148.83 49.4999 122.12 61.6399 91.39C67.3599 76.93 75.1799 57.14 95.1399 47.25C97.0499 46.3 102.56 43.58 108.45 42.78C111.04 42.43 113.77 42.45 116.6 42.8C111.02 43.07 105.16 44.04 99.1099 47.18C80.1199 57.03 75.7999 79.74 74.9899 84C74.0099 89.14 70.5899 108.9 83.3599 127.01C95.5699 144.31 115.19 149.61 127.86 149.79C134.17 149.88 139.58 148.71 140.82 148.44C148.43 146.74 153.2 144 168 135.89C171.89 133.76 174.67 132.25 176.69 131.17Z" fill="#8C72BD"/>
<path d="M131.55 43.21V43.22C128.01 42.76 125.51 42.7 124.24 42.69C121.77 42.67 119.21 42.65 116.61 42.79C113.78 42.44 111.04 42.42 108.46 42.77C102.58 43.56 97.06 46.29 95.15 47.24C75.2 57.13 67.37 76.92 61.65 91.38C49.51 122.11 52.83 148.82 53.57 154.11C54.45 160.53 55.45 167.79 57.05 174.92C41.78 167.36 29.02 155.52 20.35 140.95C16.11 133.84 12.85 126.08 10.75 117.86C10.78 114.59 11.5 111.16 13.6 108.21C14.34 107.17 15.48 106.16 17.76 104.37C17.91 104.26 18.07 104.14 18.23 104.01C25.29 98.51 28.32 98.15 34.3 93.57C37.27 91.3 39.21 89.34 41.75 86.76C46.72 81.72 50.01 77.3 51.23 75.62C57.51 66.93 56.77 64.65 62.58 58.16C65.8 54.55 69.05 51.92 69.67 51.42C70.97 50.38 73.19 48.59 76.41 46.73C76.41 46.73 80.4 44.42 84.92 42.82C95.54 39.09 107.97 40.07 114.99 40.68C119.19 41.04 124.86 41.75 131.55 43.21Z" fill="#96DFD3"/>
<path d="M131.32 58.5H133.34C136.3 58.87 139.11 60.21 141.28 62.26C145.02 65.72 146.64 70.8 147.46 75.69C147.49 76.03 147.5 76.37 147.54 76.71C144.7 76.67 141.86 76.75 139.02 76.67C138.98 76.67 138.89 76.66 138.85 76.66C138.28 74.24 137.35 71.86 135.88 69.85C133.77 66.93 130.19 65.25 126.63 65.17C124.09 65.12 121.66 66.18 119.7 67.75C117.26 69.66 115.31 72.11 113.48 74.59C115.2 70.9 117.47 67.44 120.25 64.46C123.15 61.35 127.01 58.94 131.32 58.5Z" fill="#54688C"/>
<path d="M119.8 86.53C122.92 86.52 126.05 86.51 129.17 86.54C130.89 87.29 132.52 88.41 133.68 89.91C134.9 91.48 135.16 93.67 134.45 95.52C134.04 96.45 133.17 97.09 132.32 97.6C130.72 98.51 128.95 99.05 127.2 99.61C127.16 99.96 127.12 100.3 127.07 100.65C129.92 103.53 132.91 106.26 135.77 109.13C135.27 109.23 134.77 109.19 134.26 109.19C129.43 109.19 124.61 109.2 119.78 109.18C119.76 101.62 119.76 94.07 119.8 86.53Z" fill="#54688C"/>
<path d="M133.48 86.56C136.51 86.47 139.54 86.55 142.57 86.52C142.62 94.07 142.58 101.62 142.59 109.16C141.44 109.14 140.29 109.22 139.15 109.12C136.36 106.36 133.64 103.53 130.86 100.75C132.7 100.17 134.62 99.48 135.91 97.96C138.39 95.25 138.07 90.66 135.48 88.14C134.89 87.51 134.14 87.09 133.48 86.56Z" fill="#54688C"/>
<path d="M104.38 93.6L104.44 93.55C105.87 96.16 107.34 98.74 108.72 101.38C108.71 101.38 108.68 101.39 108.66 101.39C108.29 101.45 108.04 101.74 107.79 101.99C106.24 103.64 104.77 105.42 103.9 107.53C102.92 109.83 102.8 112.45 103.43 114.86C104.01 117.46 105.64 119.8 107.91 121.21C111.2 123.3 115.14 123.87 118.91 124.5C113.69 124.73 108.3 124.3 103.44 122.24C99.9702 120.77 96.8202 118.18 95.3402 114.64C93.9602 111.54 94.0702 107.93 95.1902 104.76C96.8402 100.1 100.51 96.52 104.38 93.6Z" fill="#54688C"/>
<path d="M159.18 94.24C162.41 98.95 165.25 104.23 165.74 110.03V112.9C165.56 115.77 164.4 118.58 162.48 120.72C160.29 123.09 157.22 124.58 154.05 125.07C149.58 125.74 145.09 124.65 140.92 123.12C140.96 123.03 141.04 122.86 141.08 122.78C142.32 120.31 143.71 117.9 145.02 115.47L145.12 115.42C147.68 116.12 150.4 116.44 153.03 115.99C156.26 115.4 159.11 113.31 160.84 110.55C161.94 108.8 162.41 106.7 162.29 104.65C162.13 100.96 160.52 97.59 159.18 94.24Z" fill="#54688C"/>
<path d="M147.46 75.7C147.53 76 147.61 76.3 147.69 76.6C149.94 76.77 152.19 76.51 154.43 76.58C154.5 82.49 154.05 88.41 152.89 94.21C151.44 101.6 148.8 108.76 145.08 115.31C145.7 113.04 146.54 110.84 147.09 108.55C148.92 101.47 149.7 94.08 149.08 86.78C148.86 83.39 148.26 80.04 147.53 76.72C147.51 76.38 147.49 76.04 147.46 75.7Z" fill="#54688C"/>
<path d="M124.43 78.21C129.17 77.22 134 76.57 138.85 76.66C138.89 76.66 138.98 76.67 139.02 76.67C135.55 77.4 132.08 78.15 128.72 79.3C124.18 80.78 119.78 82.75 115.69 85.2C111.61 87.51 107.98 90.48 104.45 93.53L104.39 93.58C103.3 91.56 101.97 89.68 100.96 87.62C108.25 83.36 116.15 80.05 124.43 78.21Z" fill="#54688C"/>
<path d="M108.67 101.4C108.68 101.4 108.71 101.39 108.73 101.39L108.77 101.46L108.67 101.4Z" fill="#54688C"/>
<path d="M108.76 101.45C108.79 101.48 108.85 101.55 108.88 101.59C108.85 101.55 108.79 101.49 108.76 101.45Z" fill="#54688C"/>
<path d="M108.88 101.59C111.12 103.86 113.15 106.35 115.58 108.43C122.57 114.88 131 119.71 140.01 122.71C140.35 122.82 140.71 122.9 141.05 122.77C141.01 122.86 140.93 123.03 140.89 123.11C139.85 125 138.76 126.85 137.7 128.73C137.56 129.09 137.19 128.82 136.97 128.71C126.84 122.84 117.7 115.01 111.12 105.26C110.36 104.04 109.49 102.89 108.88 101.59Z" fill="#54688C"/>
<path d="M145 115.46C145.02 115.42 145.07 115.35 145.09 115.31V115.42L145 115.46Z" fill="#54688C"/>
<path d="M138.57 75.43C136.87 69.3 132.85 65.66 127.24 65.15C123.64 64.82 120.07 66.72 116.27 70.99C115.49 71.86 114.82 72.54 114.77 72.49C114.72 72.44 115.06 71.77 115.51 71C118.53 65.87 122.64 61.76 126.55 59.96C130.53 58.12 133.77 58.12 137.59 59.95C142.43 62.28 145.52 66.84 146.94 73.76C147.17 74.86 147.39 75.96 147.44 76.2L147.53 76.63H143.22H138.91L138.57 75.43Z" fill="#54688C"/>
<path d="M111.94 124.25C111.09 124.16 109.54 123.91 108.49 123.68C101.27 122.14 96.7901 118.7 94.9401 113.27C94.6501 112.43 94.5801 111.65 94.5801 109.51C94.5901 107 94.6301 106.69 95.1701 105.15C96.2101 102.22 97.6401 100 100.12 97.48C101.79 95.78 104.29 93.7 104.46 93.87C104.53 93.94 105.46 95.61 106.54 97.58L108.5 101.17L107.55 102.16C103.76 106.1 102.38 109.96 103.25 114.24C103.71 116.51 104.49 118.06 105.98 119.64C107.98 121.76 110.63 122.97 115.55 123.99L117.72 124.44L115.6 124.43C114.44 124.41 112.79 124.34 111.94 124.25Z" fill="#54688C"/>
<path d="M148.87 125.03C147.02 124.81 145.2 124.38 142.86 123.63L140.99 123.03L141.77 121.57C144.2 117.06 145.06 115.58 145.26 115.58C145.38 115.58 146.12 115.71 146.89 115.87C148.75 116.26 152.29 116.26 153.76 115.87C157.37 114.91 160.63 111.93 161.82 108.48C162.18 107.43 162.26 106.8 162.26 105.07C162.25 102.72 161.89 101.04 160.7 97.88C160.33 96.88 160.06 96.03 160.1 95.99C160.14 95.95 160.72 96.82 161.38 97.93C163.18 100.96 164.44 104.03 165.29 107.48C165.69 109.12 165.63 114.03 165.19 115.48C164.54 117.62 163.36 119.61 161.84 121.12C160.69 122.26 160.07 122.69 158.46 123.46C157.38 123.98 155.92 124.54 155.22 124.71C153.58 125.11 150.7 125.25 148.87 125.03Z" fill="#54688C"/>
<path d="M119.94 97.85V86.66H124.58C129.79 86.66 129.76 86.65 131.87 88.26C134.81 90.5 135.65 94.16 133.72 96.3C132.93 97.17 130.91 98.27 128.76 98.99C127.28 99.49 127.18 99.56 127.12 100.1C127.07 100.63 127.44 101.06 131.27 104.85L135.47 109.02H127.71H119.95V97.85H119.94Z" fill="#54688C"/>
<path d="M136.33 106.19C134.79 104.63 132.99 102.78 132.33 102.08L131.12 100.82L132.71 100.17C134.02 99.64 134.53 99.29 135.57 98.25C136.67 97.15 136.9 96.79 137.28 95.57C137.65 94.4 137.71 93.93 137.6 92.78C137.39 90.57 136.34 88.62 134.62 87.31L133.76 86.66H138.13H142.5V97.85V109.04H140.81H139.12L136.33 106.19Z" fill="#54688C"/>
<path d="M138.46 75.04C136.59 69.38 133.4 66.28 128.47 65.32C127.08 65.05 126.5 65.03 125.38 65.19C122.46 65.61 120.37 66.85 117.21 70.01C116.02 71.2 115.04 72.11 115.04 72.03C115.04 71.95 115.4 71.28 115.84 70.55C119.39 64.63 124.6 60.18 129.32 59.01C130.91 58.62 133.32 58.61 134.81 58.99C137.33 59.63 140.61 61.61 142.14 63.39C143.74 65.25 145.09 67.73 145.96 70.37C146.4 71.7 147.44 76 147.44 76.47C147.44 76.56 145.54 76.63 143.21 76.63H138.98L138.46 75.04Z" fill="#54688C"/>
<path d="M146.96 124.65C145.44 124.34 141.27 123.18 141.12 123.02C141.05 122.95 143.94 117.64 144.71 116.42C145.09 115.81 145.31 115.63 145.61 115.7C148.04 116.24 151.96 116.33 153.72 115.88C155.8 115.35 157.24 114.49 159.02 112.71C161.41 110.32 162.29 108.32 162.29 105.28C162.29 103.13 162.01 101.64 161.13 99.04C160.71 97.81 160.37 96.71 160.37 96.6C160.37 96.49 160.72 96.97 161.14 97.66C163.21 101.01 165.05 105.83 165.42 108.86C165.72 111.27 165.39 114.93 164.74 116.55C162.98 120.9 159.49 123.73 154.61 124.77C152.81 125.14 149.1 125.09 146.96 124.65Z" fill="#54688C"/>
<path d="M135.18 104.96L131.15 100.88L132.79 100.13C134.67 99.26 136.19 97.91 136.99 96.4C137.45 95.53 137.5 95.23 137.5 93.41C137.5 91.52 137.46 91.3 136.88 90.1C136.45 89.23 135.88 88.48 135.09 87.74L133.92 86.66H138.17H142.42V97.85V109.04H140.82H139.22L135.18 104.96Z" fill="#54688C"/>
<path d="M120.06 97.82V86.62L124.64 86.7C129.76 86.79 129.96 86.84 131.7 88.22C133.52 89.66 134.44 91.15 134.66 93C134.96 95.53 133.43 97.17 129.32 98.72C127.24 99.51 126.84 99.86 127.21 100.59C127.33 100.83 129.22 102.82 131.41 105.03L135.39 109.03H127.73H120.07V97.82H120.06Z" fill="#54688C"/>
<path d="M113.21 124.26C103.92 123.6 97.8001 120.08 95.2601 113.95C94.7201 112.65 94.7001 112.49 94.7101 109.51C94.7201 106.62 94.7501 106.34 95.2501 105.07C95.9701 103.22 97.1301 101.12 98.1601 99.78C99.7001 97.78 104.23 93.65 104.51 93.99C104.61 94.11 107.81 99.94 108.17 100.65C108.47 101.24 108.46 101.26 107.88 101.81C106.78 102.84 105.01 105.21 104.33 106.54C103.39 108.41 103.07 109.78 103.08 111.91C103.1 117.12 105.86 120.92 110.92 122.73C111.55 122.95 113.19 123.42 114.56 123.77C117.32 124.48 117.15 124.54 113.21 124.26Z" fill="#54688C"/>
<path d="M147.34 124.75C145.38 124.35 141.37 123.23 141.11 123C140.99 122.9 144.75 116.22 145.08 115.92C145.37 115.66 145.6 115.66 146.96 115.88C148.81 116.19 151.82 116.23 153.25 115.97C157.05 115.27 161.01 111.55 162 107.76C162.61 105.41 162.31 102.56 161.04 98.81C160.67 97.71 160.4 96.77 160.45 96.72C160.78 96.39 163.39 101.69 164.41 104.73C165.4 107.7 165.65 109.35 165.5 112.11C165.36 114.75 165.02 116.16 164.12 117.88C162.43 121.09 159.91 123.11 155.93 124.45C154.29 125.01 149.43 125.18 147.34 124.75Z" fill="#54688C"/>
<path d="M149.14 124.96C146.96 124.81 141.14 123.33 141.14 122.93C141.14 122.76 142.61 120.01 144 117.59L145.09 115.69L145.96 115.8C148.26 116.08 152.28 116.15 153.35 115.93C155.2 115.55 157.33 114.35 158.84 112.85C162.46 109.26 163.12 105.64 161.26 99.57C160.3 96.44 160.3 96.44 160.79 97.03C161.53 97.92 163.69 102.51 164.46 104.84C165.48 107.91 165.75 110.14 165.45 113.16C164.92 118.59 161.88 122.35 156.47 124.28C154.69 124.9 151.97 125.16 149.14 124.96Z" fill="#54688C"/>
<path d="M138.64 75.67C138.26 74.17 137.3 72.03 136.33 70.55C134.14 67.19 130.51 65.21 126.59 65.21C124.69 65.21 123.48 65.52 121.72 66.44C120.26 67.21 117.46 69.54 116.01 71.2C115.51 71.77 115.1 72.17 115.1 72.08C115.1 71.67 116.42 69.52 117.79 67.7C120.62 63.94 124.24 60.93 127.51 59.62C129.28 58.91 130.54 58.66 132.25 58.66C134.02 58.66 135.49 59.07 137.85 60.23C139.59 61.08 140.1 61.46 141.52 62.88C144.58 65.96 145.8 68.7 147.41 76.16L147.5 76.59H143.18H138.86L138.64 75.67Z" fill="#54688C"/>
</g>
</g>
<defs>
<clipPath id="clip0">
<rect width="192" height="192" fill="white"/>
</clipPath>
<clipPath id="clip1">
<rect width="176" height="176" fill="white" transform="translate(8 8)"/>
</clipPath>
</defs>
</svg>
